img/catalogue/paw-promo-block.svg

<svg width="263" height="247" viewBox="0 0 263 247" fill="none" xmlns="http://www.w3.org/2000/svg">
<path d="M175.556 57.8442C137.742 68.142 101.678 23.8848 127.772 -2.2091C139.026 -13.4633 157.203 -14.766 172.326 -8.31673C207.253 6.5798 208.026 49.0071 175.556 57.8442Z" fill="#FFFEFD" fill-opacity="0.2"/>
<path d="M145.876 77.5782C174.74 48.7149 232.259 88.9502 212.873 124.407C204.04 140.561 181.052 145.985 160.436 134.495C137.323 121.622 129.65 93.8045 145.876 77.5782Z" fill="#FFFEFD" fill-opacity="0.2"/>
<path d="M51.4497 -2.0018C48.5464 3.11165 42.1441 10.9375 34.8005 18.4868C27.0442 26.473 18.2406 34.1515 11.4364 38.0115C-6.96546 48.412 -16.8819 77.6867 7.51994 93.4896C30.0808 108.097 43.3112 92.7489 64.3023 106.982C85.5064 121.377 107.328 116.736 119.517 103.203C130.797 90.6771 133.822 70.5324 120.44 50.8364C106.175 29.853 121.503 16.6621 106.896 -5.8868C91.0931 -30.3205 61.8295 -20.3103 51.4497 -2.0018Z" fill="#FFFEFD" fill-opacity="0.2"/>
<path d="M95.0759 128.375C103.24 120.211 114.981 117.928 126.114 121.269C159.217 131.206 169.985 180.021 141.887 195.358C106.361 214.769 66.2285 157.223 95.0759 128.375Z" fill="#FFFEFD" fill-opacity="0.2"/>
<path d="M49.0886 108.48C80.9692 121.825 86.6235 171.415 56.9521 183.704C21.2127 198.508 -12.7884 142.215 14.999 114.427C23.9167 105.51 36.9697 103.406 49.0886 108.48Z" fill="#FFFEFD" fill-opacity="0.2"/>
</svg>

<svg width="263" height="247" fill="none" xmlns="http://www.w3.org/2000/svg"><path d="M175.556 57.844c-37.814 10.298-73.878-33.96-47.784-60.053 11.254-11.254 29.431-12.557 44.554-6.108 34.927 14.897 35.7 57.324 3.23 66.161zm-29.68 19.734c28.864-28.863 86.383 11.372 66.997 46.829-8.833 16.154-31.821 21.578-52.437 10.088-23.113-12.873-30.786-40.69-14.56-56.917z" fill="#FFFEFD" fill-opacity=".2"/><path d="M51.45-2.002c-2.904 5.114-9.306 12.94-16.65 20.489-7.756 7.986-16.56 15.665-23.364 19.524C-6.965 48.412-16.882 77.688 7.52 93.49c22.56 14.607 35.791-.741 56.782 13.492 21.204 14.395 43.026 9.754 55.215-3.779 11.28-12.526 14.305-32.67.923-52.367-14.265-20.983 1.063-34.174-13.544-56.723C91.093-30.32 61.83-20.31 51.45-2.002zm43.626 130.377c8.164-8.164 19.905-10.447 31.038-7.106 33.103 9.937 43.871 58.752 15.773 74.089-35.526 19.411-75.659-38.135-46.811-66.983z" fill="#FFFEFD" fill-opacity=".2"/><path d="M49.089 108.48c31.88 13.345 37.535 62.935 7.863 75.224-35.74 14.804-69.74-41.489-41.953-69.277 8.918-8.917 21.97-11.021 34.09-5.947z" fill="#FFFEFD" fill-opacity=".2"/></svg>
